X: 29605
T: North Brig O' Edinburgh, The
R: strathspey
M: 4/4
K: Bminor
B>A|B2 B>F B>B d2|c>BA>c e/d/c/B/ A>c|B2 B>F B>B d2|d>B c<A B2:|
B>c|d2 d>f d>df>d|c>BA>c e/d/c/B/ A>c|d2 d>f d>d d2|d>B c<A B2 B>c|
d2 d>f d>df>d|c>BA>c e/d/c/B/ A>c|d2 d>B A>ce>c|d>B c<A B2||

